X: 250
T: G Rag
B: canberra pickers and fiddlers
B: tunes
M:4/4
L:1/8
R: reel
Q: 1/4=100
K:G
V:1 
G3G AGBd-|d2g2g4|G3A Bd3|f2f6|
A3A BAce-|e2a2a4|a2f4e2|d6-dB-|
B2B2-Bd-dg-|g2g4 b2| b4ba-a2|g6g2|
g3a- a2g2-|gage d3e| d2B6-|G6||
_B2-|=B2[B2g2]z2[B2g2]|z2[B2g2]z2[B2g2]|z2[c3e3]f[c2e2]|[c8e8]|
z2[c2e2]z2[c2e2]|z2[c2e2]z2[c2e2]|z2[Bf]-[B3d3][B2d2]|[B8d8]|
z2[B2d2]z2[B2d2]|z2[B2d2]z2[B2d2]|z2[B6f6]-|[E8_B8]|
gg-ga- ag-ga |ge d3e d2|[G2_B2]-[G6B6]|G8||
% abcbook-tune_id 63ae8f1c218a8ae4e0608bd2
% abcbook-tune_composer_id 
% abcbook-link-0 https://www.youtube.com/watch?v=TV57ZMG8I-0
% abcbook-boost 0
% abcbook-difficulty 0
% abcbook-tags canberra pickers and fiddlers,old time tunes,© free
% abcbook-tablature 
% abcbook-transpose 
% abcbook-tuning GDAD
% abcbook-lastupdated 1672384284224
% abcbook-src-url https://tunebook.net/scrape/tunes.abc
% abcbook-soundfonts 
% abcbook-repeats 1


